X:2562
T:Polska efter Bruun
S:efter Johan Jacob Bruun
B:http://www.smus.se/earkiv/fmk/browselarge.php?lang=sw&katalogid=Ske+30&bildnr=00026
Z:Nils L
R:Polska
O:Skåne, Särslöv, Annelöv
N:"Nedtecknad av J. Bruun, Särslöv, Annelöv, Oktober 1867"
M:3/4
L:1/16
%%graceslurs no
K:Dm
d2{/e}(d^c) d2e2 f2d2 | e2>f2 e2>f2 e2>^c2 | d2{/e}(d^c) d2e2 f2d2 | ed^c=B A4 A4 ::
a2f2 f2f2 a4 | gfed cdef g4 | a2f2 f2f2 a4 | gfed cdef g4 |
a2(fa) g2(eg) f2(df) | e2(^ce) d4 d4 :|
(:musicend:)
(:music:)
